X: 2776
T: Bannocks Of Bere Meal
R: waltz
M: 3/4
K: Gmajor
|:G2 G2 B2|A2 Ac BA|G2 GA Bc|d2 f2 g2:|
|:g2 d2 B2|A2 fg af|g2 d2 B2|g3 a g/a/b|
e2 ge dB|d2 Ac BA|G2 GA Bc|d2 f2 g2:|

